X:262
T: Sir Charles Douglas' Strathspey
N: O'Farrell's Pocket Companion v.3 (Sky ed. p.121)
N: "Scotch"
D: "O'Sullivan Meets O'Farrell" track 7A
M: 4/4
L: 1/8
R: hornpipe %strathspey
Q: 280
K: D
ADAF ADDB| ADFD F/G/A d2| ADFD ADAF| GdFd E2B2 :|
A<dd>f edcB| A<dd>f ef g2| A<dd>f ecdA| BdFd E2 B2|
A<dd>f edcB| Addf ef g2| faef dfBd| AdFd E2B2 ||
